pages/full-stack-developers/library-quick-starts.svg

<?xml version="1.0" encoding="UTF-8"?>
<svg width="300px" height="249px" viewBox="0 0 300 249" version="1.1" xmlns="http://www.w3.org/2000/svg" xmlns:xlink="http://www.w3.org/1999/xlink">
    <!-- Generator: Sketch 41.2 (35397) - http://www.bohemiancoding.com/sketch -->
    <title>library-quick-starts</title>
    <desc>Created with Sketch.</desc>
    <defs></defs>
    <g id="Page-1" stroke="none" stroke-width="1" fill="none" fill-rule="evenodd">
        <g id="library-quick-starts" fill="#0070D3">
            <path d="M0,0 L0,41.3793103 L0,51.7241379 L0,248.275862 L300,248.275862 L300,51.7241379 L300,41.3793103 L300,0 L0,0 Z M289.655172,237.931034 L10.3448276,237.931034 L10.3448276,51.7241379 L289.655172,51.7241379 L289.655172,237.931034 Z M289.655172,41.3793103 L10.3448276,41.3793103 L10.3448276,10.3448276 L289.655172,10.3448276 L289.655172,41.3793103 Z" id="Shape"></path>
            <circle id="Oval" cx="25.862069" cy="25.862069" r="10.3448276"></circle>
            <ellipse id="Oval" cx="51.7241379" cy="25.862069" rx="10.3448276" ry="10.3448276"></ellipse>
            <ellipse id="Oval" cx="77.5862069" cy="25.862069" rx="10.3448276" ry="10.3448276"></ellipse>
            <path d="M124.686207,203.891379 C125.350862,204.177155 126.042672,204.312931 126.721552,204.312931 C128.729741,204.312931 130.638362,203.136207 131.477586,201.175862 L178.02931,92.5551724 C179.155603,89.9288793 177.938793,86.8875 175.313793,85.7637931 C172.684914,84.6323276 169.643534,85.8543103 168.522414,88.4793103 L121.97069,197.1 C120.844397,199.726293 122.061207,202.767672 124.686207,203.891379 Z" id="Shape"></path>
            <path d="M59.9353448,146.648276 L110.490517,177.703448 C111.333621,178.22069 112.268534,178.468966 113.193103,178.468966 C114.931034,178.468966 116.627586,177.592241 117.605172,176.00431 C119.1,173.569397 118.339655,170.384483 115.906034,168.889655 L72.525,142.241379 L115.904741,115.59181 C118.339655,114.096983 119.1,110.912069 117.603879,108.477155 C116.106466,106.044828 112.918966,105.276724 110.489224,106.778017 L59.9353448,137.834483 C58.4043103,138.775862 57.4706897,140.443966 57.4706897,142.241379 C57.4693966,144.040086 58.4043103,145.709483 59.9353448,146.648276 Z" id="Shape"></path>
            <path d="M184.668103,115.589224 L228.049138,142.241379 L184.669397,168.889655 C182.234483,170.384483 181.474138,173.568103 182.968966,176.003017 C183.946552,177.590948 185.643103,178.467672 187.381034,178.467672 C188.303017,178.467672 189.240517,178.219397 190.083621,177.702155 L240.638793,146.646983 C242.169828,145.706897 243.103448,144.0375 243.103448,142.240086 C243.103448,140.442672 242.168534,138.774569 240.638793,137.83319 L190.083621,106.775431 C187.646121,105.278017 184.463793,106.038362 182.968966,108.474569 C181.474138,110.909483 182.234483,114.094397 184.668103,115.589224 Z" id="Shape"></path>
        </g>
    </g>
</svg>

<svg width="300" height="249" viewBox="0 0 300 249" xmlns="http://www.w3.org/2000/svg"><title>library-quick-starts</title><g fill="#0070D3" fill-rule="evenodd"><path d="M0 0v248.276h300V0H0zm289.655 237.931H10.345V51.724h279.31v186.207zm0-196.552H10.345V10.345h279.31v31.034z"/><circle cx="25.862" cy="25.862" r="10.345"/><ellipse cx="51.724" cy="25.862" rx="10.345" ry="10.345"/><ellipse cx="77.586" cy="25.862" rx="10.345" ry="10.345"/><path d="M124.686 203.891a5.145 5.145 0 0 0 2.036.422 5.172 5.172 0 0 0 4.756-3.137l46.551-108.62a5.17 5.17 0 0 0-2.715-6.792 5.164 5.164 0 0 0-6.792 2.715L121.971 197.1a5.17 5.17 0 0 0 2.715 6.791zM59.935 146.648l50.556 31.055a5.174 5.174 0 0 0 5.416-8.814l-43.382-26.648 43.38-26.65a5.17 5.17 0 0 0 1.699-7.114c-1.498-2.432-4.685-3.2-7.115-1.699l-50.554 31.056a5.174 5.174 0 0 0 0 8.814zM184.668 115.59l43.381 26.651-43.38 26.649a5.17 5.17 0 1 0 5.415 8.812l50.555-31.055a5.172 5.172 0 0 0 0-8.814l-50.555-31.058a5.168 5.168 0 0 0-7.115 1.7 5.173 5.173 0 0 0 1.7 7.114z"/></g></svg>
